frontend/public/svg/files/file-jpg.svg

<svg width="142" height="174" viewBox="0 0 142 174" fill="none" xmlns="http://www.w3.org/2000/svg">
<g clip-path="url(#clip0)">
<path d="M140.616 92.1385C140.797 108.643 141.038 125.147 141.125 141.652C141.156 147.485 140.694 153.319 140.666 159.154C140.628 167.532 134.204 172.66 126.574 172.825C109.85 173.186 93.1189 173.552 76.3928 173.481C59.4377 173.412 42.4824 172.897 25.5318 172.406C21.1584 172.204 16.8016 171.733 12.4858 170.997C7.51994 170.237 2.62839 164.327 2.34944 158.925C2.08691 153.774 1.8735 148.615 1.80655 143.458C1.4797 118.191 1.18526 92.9248 0.923155 67.6578C0.763667 52.9468 0.709214 38.2335 0.470963 23.5237C0.402048 19.2358 0.132932 14.941 1.8801 10.9328C2.81334 8.66204 4.08626 6.54666 5.65532 4.65849C7.47669 2.58053 10.1369 1.79779 12.9539 1.72099C19.1235 1.55363 25.3095 1.51778 31.4672 1.10888C52.6906 -0.302244 73.9092 0.819038 95.1319 0.961461C99.6731 0.991652 103.127 2.44818 106.478 5.63339C113.31 12.1252 120.639 18.0918 127.726 24.3179C130.339 26.615 132.749 29.1494 135.427 31.3626C138.397 33.816 139.266 36.9579 139.321 40.6065C139.552 56.1013 139.854 71.5951 140.122 87.0893C140.151 88.7721 140.126 90.4563 140.126 92.1398L140.616 92.1385ZM93.3093 9.3445C91.2641 9.18698 89.5964 8.9721 87.9273 8.94453C73.7826 8.70956 59.6376 8.49566 45.4931 8.30362C39.099 8.21567 32.7043 8.17255 26.309 8.13054C23.0601 8.11019 19.8028 8.00708 16.5631 8.18692C12.0888 8.43567 10.7171 9.76758 9.9052 14.2504C9.0918 18.4441 8.91052 22.7356 9.3676 26.9829C9.59909 28.8778 9.72222 30.7844 9.73646 32.6932C9.8651 70.8646 9.97668 109.035 10.0712 147.206C10.0784 149.897 9.79816 152.61 10.0161 155.28C10.4335 160.407 13.2393 164.055 19.2593 164.289C40.8121 165.127 62.3636 165.133 83.9223 164.779C94.9239 164.598 105.927 164.499 116.929 164.372C119.62 164.342 122.317 164.445 125.002 164.312C129.653 164.082 131.959 161.719 131.916 157.067C131.832 148.093 131.619 139.12 131.439 130.148C131.347 125.547 131.248 120.945 131.091 116.346C130.723 105.577 130.138 94.8124 129.979 84.0413C129.796 71.6949 129.983 59.3432 129.995 46.9936C129.972 46.3478 129.912 45.7035 129.817 45.0643C122.508 45.0643 115.453 45.1143 108.4 45.0335C106.271 45.0344 104.147 44.8068 102.065 44.3547C97.649 43.3322 96.2654 41.6759 95.8119 37.2043C95.4181 33.2984 95.1555 29.3788 94.8044 25.4677C94.3338 20.2295 93.8343 14.9936 93.3093 9.3445ZM124.682 35.7391C124.749 35.5071 124.814 35.2753 124.879 35.043L102.617 14.8394L102.109 15.1509C103.199 22.3162 104.29 29.4814 105.417 36.8908L124.682 35.7391Z" fill="black"/>
<path d="M103.861 101.218L101.695 99.6373C101.084 99.9858 100.232 100.221 99.7729 100.778C98.0533 102.696 96.5004 104.756 95.1313 106.937C92.332 111.855 91.0771 117.5 91.5293 123.141C91.9297 128.743 97.1594 132.329 102.608 131.01C106.31 130.111 107.732 127.215 106.689 122.047C105.114 121.365 103.246 120.655 101.47 119.768C98.7287 118.401 98.1498 115.366 100.213 113.388C100.676 112.899 101.274 112.561 101.93 112.415C105.93 111.92 109.938 111.262 113.952 111.191C116.955 111.138 118.678 113.796 117.6 116.229C117.09 117.079 116.401 117.808 115.582 118.366C115.056 118.722 114.49 119.015 113.895 119.239C114.092 121.167 114.516 122.945 114.41 124.687C113.824 134.299 108.095 138.947 98.9171 138.476C94.9843 138.33 91.2602 136.669 88.5253 133.838C85.7903 131.009 84.2564 127.23 84.2453 123.295C84.2184 113.404 87.3038 104.524 94.5498 97.4241C96.6205 95.3941 99.0129 93.9862 102.032 94.149C103.677 94.2383 105.097 94.8362 105.718 96.5775C106.325 98.3036 105.897 99.4594 103.861 101.218Z" fill="black"/>
<path d="M63.9054 125.153C63.9054 128.264 64.0314 130.947 63.8549 133.609C63.7255 135.048 63.3389 136.452 62.7135 137.754C62.042 139.209 60.6538 139.759 59.0517 139.546C57.5716 139.349 56.473 138.535 56.2676 137.043C56.0005 135.294 55.9104 133.521 55.9985 131.753C56.4521 124.937 57.067 118.13 57.5291 111.314C57.6604 109.332 57.8362 107.323 56.6712 105.435C56.2735 104.79 56.4146 103.672 56.6023 102.836C56.9922 101.1 57.5783 99.4084 58.1257 97.5581C64.063 94.879 69.9929 94.1321 75.8632 98.0031C82.0183 102.062 83.9919 109.727 80.0493 115.957C78.2824 118.532 76.1454 120.833 73.7078 122.786C71.1638 124.966 67.9583 125.689 63.9054 125.153ZM64.2558 117.685C69.1036 117.134 72.3688 114.759 74.3805 110.713C75.3978 108.669 74.9968 106.543 73.7531 104.658C71.7283 101.589 67.0171 100.194 63.3658 101.56C63.6592 106.845 63.952 112.146 64.2579 117.685H64.2558Z" fill="black"/>
<path d="M43.4429 104.224C43.8846 107.354 44.3618 110.327 44.7155 113.319C45.4375 119.436 46.3334 125.54 45.0358 131.714C44.178 135.797 42.5372 139.253 38.2651 140.539C33.655 141.927 29.379 141.199 25.8485 137.666C23.6987 135.661 22.2536 133.016 21.728 130.124C21.3814 127.972 21.9827 126.489 23.4345 125.812C24.9592 125.102 26.2627 125.523 27.7906 127.309C28.7371 128.416 29.6323 129.568 30.5131 130.728C31.984 132.665 33.8335 133.263 36.2028 132.411C37.6612 130.865 38.0202 128.819 38.0832 126.844C38.2467 121.703 38.2068 116.556 38.1739 111.412C38.1588 109.082 37.9685 106.752 37.8458 104.156C36.816 104.156 35.9593 104.16 35.1022 104.156C32.0791 104.139 29.0442 104.272 26.0349 104.055C23.359 103.862 22.4394 102.955 22.5031 101.319C22.5687 99.6702 23.659 98.9351 26.1964 98.7822C28.3194 98.6536 30.4416 98.5052 32.5628 98.3372C36.4707 98.034 40.3733 97.6894 44.2864 97.419C45.2927 97.375 46.3008 97.4157 47.3002 97.5417C47.9271 97.5542 48.5265 97.8029 48.9779 98.2381C49.4292 98.6732 49.6992 99.2633 49.7339 99.8894C49.846 100.507 49.737 101.145 49.4261 101.69C49.1151 102.236 48.6221 102.654 48.0334 102.872C46.5274 103.401 44.9951 103.852 43.4429 104.224Z" fill="black"/>
</g>
<defs>
<clipPath id="clip0">
<rect width="141.113" height="173.273" fill="white" transform="translate(0.109375 0.230469)"/>
</clipPath>
</defs>
</svg>

<svg xmlns="http://www.w3.org/2000/svg" width="142" height="174" fill="none" viewBox="0 0 142 174"><g fill="#000" clip-path="url(#a)"><path d="M140.616 92.139c.181 16.504.422 33.008.509 49.513.031 5.833-.431 11.667-.459 17.502-.038 8.378-6.462 13.506-14.092 13.671-16.724.361-33.455.727-50.181.656-16.955-.069-33.91-.584-50.861-1.075-4.374-.202-8.73-.673-13.046-1.409-4.966-.76-9.858-6.67-10.137-12.072-.262-5.151-.476-10.31-.542-15.467q-.49-37.9-.884-75.8C.763 52.947.71 38.233.471 23.524c-.069-4.288-.338-8.583 1.41-12.591a24.2 24.2 0 0 1 3.774-6.275c1.822-2.077 4.482-2.86 7.299-2.937 6.17-.167 12.356-.203 18.513-.612C52.691-.302 73.91.819 95.132.96c4.541.03 7.995 1.487 11.346 4.672 6.832 6.492 14.161 12.459 21.248 18.685 2.613 2.297 5.023 4.831 7.701 7.045 2.97 2.453 3.839 5.595 3.894 9.243.231 15.495.533 30.99.801 46.483.029 1.683.004 3.367.004 5.05zM93.309 9.344c-2.045-.158-3.713-.373-5.382-.4q-21.217-.353-42.434-.641A2670 2670 0 0 0 26.31 8.13c-3.249-.02-6.506-.124-9.746.056-4.474.249-5.846 1.58-6.658 6.063a42.8 42.8 0 0 0-.537 12.733c.231 1.895.354 3.801.368 5.71q.194 57.257.335 114.513c.007 2.691-.273 5.404-.055 8.074.418 5.127 3.223 8.775 9.243 9.009 21.553.838 43.105.844 64.663.49 11.002-.181 22.005-.28 33.007-.407 2.691-.03 5.388.073 8.073-.06 4.651-.23 6.957-2.593 6.914-7.245-.084-8.974-.297-17.947-.477-26.919a977 977 0 0 0-.348-13.802c-.368-10.769-.953-21.534-1.112-32.305-.183-12.346.004-24.698.016-37.047a17 17 0 0 0-.178-1.93c-7.309 0-14.364.05-21.417-.03-2.129 0-4.253-.227-6.335-.68-4.416-1.022-5.8-2.678-6.253-7.15-.394-3.906-.656-7.825-1.008-11.736-.47-5.238-.97-10.474-1.495-16.123m31.373 26.394q.1-.348.197-.696l-22.262-20.204-.508.312 3.308 21.74z"/><path d="m103.861 101.218-2.166-1.58c-.611.348-1.463.583-1.922 1.14a45.3 45.3 0 0 0-4.642 6.159 28.2 28.2 0 0 0-3.602 16.204c.4 5.602 5.63 9.188 11.079 7.869 3.702-.899 5.124-3.795 4.081-8.963-1.575-.682-3.443-1.392-5.219-2.279-2.741-1.367-3.32-4.402-1.257-6.38a3.37 3.37 0 0 1 1.717-.973c4-.495 8.008-1.153 12.022-1.224 3.003-.053 4.726 2.605 3.648 5.038a6.85 6.85 0 0 1-2.018 2.137 8 8 0 0 1-1.687.873c.197 1.928.621 3.706.515 5.448-.586 9.612-6.315 14.26-15.493 13.789a15.233 15.233 0 0 1-14.672-15.181c-.027-9.891 3.059-18.771 10.305-25.87 2.07-2.03 4.463-3.439 7.482-3.276 1.645.09 3.065.687 3.686 2.428.607 1.727.179 2.882-1.857 4.641m-39.956 23.935c0 3.111.126 5.794-.05 8.456a12.1 12.1 0 0 1-1.141 4.145c-.672 1.455-2.06 2.005-3.662 1.792-1.48-.197-2.579-1.011-2.784-2.503a26.4 26.4 0 0 1-.27-5.29c.454-6.816 1.069-13.623 1.531-20.439.131-1.982.307-3.991-.858-5.879-.398-.645-.256-1.763-.069-2.599.39-1.736.976-3.428 1.524-5.278 5.937-2.679 11.867-3.426 17.737.445 6.155 4.059 8.129 11.724 4.186 17.954a31.8 31.8 0 0 1-6.341 6.829c-2.544 2.18-5.75 2.903-9.803 2.367m.35-7.468c4.849-.551 8.114-2.926 10.126-6.972 1.017-2.044.616-4.17-.628-6.055-2.025-3.069-6.736-4.464-10.387-3.098l.892 16.125zm-20.812-13.461c.442 3.13.919 6.103 1.273 9.095.721 6.117 1.617 12.221.32 18.395-.858 4.083-2.499 7.539-6.77 8.825-4.611 1.388-8.887.66-12.417-2.873a13.65 13.65 0 0 1-4.121-7.542c-.347-2.152.255-3.635 1.706-4.312 1.525-.71 2.829-.289 4.357 1.497a76 76 0 0 1 2.722 3.419c1.471 1.937 3.32 2.535 5.69 1.683 1.458-1.546 1.817-3.592 1.88-5.567.164-5.141.124-10.288.09-15.432-.014-2.33-.205-4.66-.327-7.256-1.03 0-1.887.004-2.744 0-3.023-.017-6.058.116-9.067-.101-2.676-.193-3.596-1.1-3.532-2.736.066-1.649 1.156-2.384 3.693-2.537q3.185-.192 6.367-.445c3.908-.303 7.81-.648 11.723-.918a18 18 0 0 1 3.014.123 2.49 2.49 0 0 1 2.434 2.347 2.67 2.67 0 0 1-1.7 2.983q-2.262.794-4.591 1.352"/></g><defs><clipPath id="a"><path fill="#fff" d="M.11.23h141.112v173.273H.11z"/></clipPath></defs></svg>
